X:1
T:Love Me Tonight
T:Love Me Tonight
T:Alla Fine Della Strada
T:Pilat & M.Panzeri
T:Barry Masion(Eng.) D. Pace(orig,)
C:Pilat & M.Panzeri
Z:All Rights Reserved
L:1/4
M:2/2
K:Bb
V:1 treble 
%%MIDI program 40
%%MIDI control 7 100
%%MIDI control 10 64
V:1
"Gm" A2 G A- | A G A G |"F" G2 F G- | G F G F |"Eb" F2 E F- | F E F E |"D7" (3E/F/E/ D3- | D4 | %8
w: ||||||||
w: ||||||||
"Gm" z G z G | z G z d |:"Gm" d2 B c | d2 B c | d2 B c | d2 c B |"D7" (3B/c/B/ A3- | A4- | A4 | %17
w: |* I|know that it's|late and I|real- ly must|leave you a-|lone; * * *|||
w: ||wait- ed so|long for the|girl of by|dreams to ap-|pear * * *|||
 z2 z c | c2 A B | c2 A B | c2 A B | c2 B A |"Gm" G4- | G4 | G3 z | z2 d e |"G7" f2 d e | f2 e d | %28
w: but|you're good to|hold and I|feel such a|long way from|home;|||Yes I|know that our|love is still|
w: and|now I can|hard- ly be-|lieve that you|real- ly are|here;||||Here in my|arms you be-|
"Cm" e4- | e z e e |"F7" e2 d c | e2 d c |"Bb" d4- |"D7" d3 z |"Gm" d2 B c | d2 c B |"D7" c2 A B | %37
w: new,|* but I|prom- ise it's|gon- na be|true.||Please let me|stay, don't you|send me a-|
w: long||How can this|feel- ing be|wrong?||Dar- ling be|kind, for I'm|out of my|
 c2 B A |"G" G4- | G4 | z4 | z2 z =B ||"G" d d d d |"G6" d d d d |"Gmaj7" d d d d |"G6" d d z2 | %46
w: way, oh! no|no.-|||Oh!|Tell me ba- by|that you need me,|say you'll nev- er|leave me|
w: mind o- ver|you.-||||||||
"D7" d2 c =B | c4- | c4- | c2 z2 |"Am" =e e e e |"Am" =e e e e |"Am7" =e e e e |"D9" =e e e e | %54
w: Love Me To-|night|||Hold me now my|heart is ach- ing|and un- til the|dawn is break- ing,|
w: ||||Ba- by, now the|pain is strong- er,|I can't wait a|mo- ment long- er.|
"G" =e2 d ^c | d4- | d4- | d3 z |"G7" =f2 f f | =f2 _e d |"Cm" _e4- | e4 |"F7" _e2 e e | _e2 d c | %64
w: Love me to-|night|||Some- thing is|burn- ing in-|side.||Some- thing that|can't be de-|
w: ||||||||||
"Bb" d4- |"D7" d z z2 ||"Gm" d d d d | d d d d |"D7" d c3 | c B2 A |"Gm" G4- | G4 |1 e2 d e- || %73
w: nied.||I can't let you|out of my sight,|dar- ling,|Love Me To-|night.|||
w: |||||||||
 e d e d |"F" d2 c d- |"Eb" d c d c | c2 B c- | c B c B |"D" (3B/c/B/ A3- | A3 d :|2"Gm" e2 d e- || %81
w: ||||||* I've|Let me love|
w: ||||||||
 e d e d |"F" d2 c d- | d c d c |"Eb" c2 B c- | c B c B |"D7" (3B/c/B/ A3 | (3d2 =e2 ^f2 | %88
w: * you ba- by,|let me love|* you ba- by,|let me love|* * you to|* night- * *|Love Me To-|
w: |||||||
"Gm" g2 d e- | e d e d |"F" d2 c d- | d c d c |"Eb" c2 B c- | c B E"F" F |"Gm" G z z2 |] %95
w: night. * *|||||||
w: |||||||

